; generated by Slic3r 1.1.7 on 2016-06-29 at 15:34:46

; perimeters extrusion width = 0.50mm
; infill extrusion width = 0.52mm
; solid infill extrusion width = 0.52mm
; top infill extrusion width = 0.52mm

G21 ; set units to millimeters
M107
M104 S200 ; set temperature
G28 ; home all axes
G1 Z5 F5000 ; lift nozzle

M109 S200 ; wait for temperature to be reached
G90 ; use absolute coordinates
G92 E0
M82 ; use absolute distances for extrusion
G1 F1800.000 E-1.00000
G92 E0
G1 Z0.350 F7800.000
G1 X81.209 Y76.568 F7800.000
G1 E1.00000 F1800.000
G1 X81.796 Y75.968 E1.02733 F1080.000
G1 X82.592 Y75.300 E1.06113
G1 X83.091 Y74.949 E1.08099
G1 X83.813 Y74.519 E1.10833
G1 X84.570 Y74.153 E1.13567
G1 X85.355 Y73.856 E1.16299
G1 X86.164 Y73.627 E1.19033
G1 X86.990 Y73.470 E1.21767
G1 X87.825 Y73.386 E1.24500
G1 X88.375 Y73.368 E1.26289
G1 X122.665 Y73.374 E2.37854
G1 X123.503 Y73.436 E2.40587 F1080.000
G1 X124.556 Y73.621 E2.44065
G1 X125.147 Y73.777 E2.46053
G1 X125.940 Y74.054 E2.48786
G1 X126.706 Y74.399 E2.51521
G1 X127.439 Y74.809 E2.54253
G1 X128.134 Y75.282 E2.56986
G1 X128.785 Y75.813 E2.59720
G1 X129.387 Y76.399 E2.62454
G1 X129.935 Y77.035 E2.65187
G1 X130.426 Y77.717 E2.67920
G1 X130.856 Y78.439 E2.70654
G1 X131.309 Y79.407 E2.74131
G1 X131.520 Y79.981 E2.76119
G1 X131.748 Y80.789 E2.78853
G1 X131.905 Y81.614 E2.81586
G1 X131.989 Y82.450 E2.84320
G1 X132.007 Y83.000 E2.86109
G1 X132.001 Y117.290 E3.97673
G1 X131.939 Y118.128 E4.00407
G1 X131.804 Y118.957 E4.03140
G1 X131.598 Y119.772 E4.05873
G1 X131.321 Y120.565 E4.08607
G1 X130.976 Y121.331 E4.11340
G1 X130.566 Y122.064 E4.14073
G1 X130.093 Y122.759 E4.16807
G1 X129.562 Y123.410 E4.19540
G1 X128.807 Y124.167 E4.23018
G1 X128.340 Y124.560 E4.25006
G1 X127.658 Y125.051 E4.27739
G1 X126.936 Y125.481 E4.30473
G1 X126.180 Y125.847 E4.33206
G1 X125.394 Y126.145 E4.35940
G1 X124.586 Y126.373 E4.38673
G1 X123.761 Y126.530 E4.41406
G1 X122.925 Y126.614 E4.44140
G1 X122.375 Y126.632 E4.45929
G1 X88.085 Y126.626 E5.57493
G1 X87.247 Y126.564 E5.60227
G1 X86.418 Y126.429 E5.62960
G1 X85.603 Y126.223 E5.65693
G1 X84.782 Y125.934 E5.68526
G1 X84.044 Y125.601 E5.71160
G1 X83.311 Y125.191 E5.73892
G1 X82.616 Y124.718 E5.76627
G1 X81.965 Y124.187 E5.79360
G1 X81.363 Y123.601 E5.82093
G1 X70.375 Y111.203 E6.35994
G1 X69.874 Y110.535 E6.38710
G1 X69.427 Y109.830 E6.41426
G1 X69.022 Y109.058 E6.44263
G1 X68.707 Y108.325 E6.46857
G1 X68.437 Y107.535 E6.49573
G1 X68.231 Y106.727 E6.52288
G1 X68.088 Y105.905 E6.55004
G1 X68.010 Y105.073 E6.57720
G1 X67.993 Y104.500 E6.59586
G1 X67.998 Y102.239 E6.66943
G1 X68.051 Y101.405 E6.69660
G1 X68.224 Y100.309 E6.73270
G1 X68.353 Y99.765 E6.75089
G1 X68.599 Y98.967 E6.77805
G1 X68.907 Y98.192 E6.80521
G1 X69.271 Y97.449 E6.83213
G1 X80.184 Y77.936 E7.55953
G1 X80.656 Y77.241 E7.58686
G1 X81.159 Y76.624 E7.61276
G1 F1800.000 E6.61276
G92 E0
G1 X88.904 Y119.625 F7800.000
G1 E1.00000 F1800.000
G1 X88.146 Y119.615 E1.02465 F378.000
G1 X87.711 Y119.539 E1.03904
G1 X87.477 Y119.466 E1.04698
G1 X87.076 Y119.280 E1.06137
G1 X86.870 Y119.150 E1.06931
G1 X86.519 Y118.856 E1.08420
G1 X86.225 Y118.505 E1.09908
G1 X85.996 Y118.109 E1.11397
G1 X85.909 Y117.898 E1.12142
G1 X85.794 Y117.471 E1.13581
G1 X85.760 Y117.229 E1.14375
G1 X85.750 Y116.471 E1.16840
G1 X86.221 Y116.422 E1.18382
G1 X86.305 Y116.808 E1.19667
G1 X86.489 Y117.321 E1.21439
G1 X86.704 Y117.716 E1.22902
G1 X87.036 Y118.147 E1.24674
G1 X87.436 Y118.515 E1.26441
G1 X87.895 Y118.809 E1.28213
G1 X88.397 Y119.020 E1.29985
G1 X88.953 Y119.154 E1.31845
G1 X88.911 Y119.550 E1.33143
G1 X88.482 Y119.356 F7800.000
G1 F1800.000 E0.33143
G92 E0
G1 X81.963 Y106.817 F7800.000
G1 E1.00000 F1800.000
G1 X81.730 Y106.937 E1.00853 F378.000
G1 X81.319 Y107.082 E1.02270
G1 X80.973 Y107.152 E1.03417
G1 X80.711 Y107.173 E1.04272
G1 X80.277 Y107.152 E1.05689
G1 X80.018 Y107.105 E1.06544
G1 X79.765 Y107.033 E1.07399
G1 X79.520 Y106.937 E1.08255
G1 X79.287 Y106.817 E1.09107
G1 X78.931 Y106.568 E1.10521
G1 X78.672 Y106.328 E1.11669
G1 X78.503 Y106.128 E1.12524
G1 X78.267 Y105.762 E1.13941
G1 X78.154 Y105.524 E1.14796
G1 X78.065 Y105.277 E1.15651
G1 X78.001 Y105.022 E1.16506
G1 X77.963 Y104.762 E1.17362
G1 X77.958 Y104.328 E1.18773
G1 X78.001 Y103.978 E1.19920
G1 X78.065 Y103.723 E1.20775
G1 X78.154 Y103.476 E1.21631
G1 X78.267 Y103.238 E1.22486
G1 X78.503 Y102.872 E1.23903
G1 X78.672 Y102.672 E1.24758
G1 X78.861 Y102.489 E1.25613
G1 X79.067 Y102.325 E1.26469
G1 X79.287 Y102.183 E1.27321
G1 X79.681 Y101.999 E1.28735
G1 X80.018 Y101.895 E1.29882
G1 X80.277 Y101.848 E1.30738
G1 X80.539 Y101.827 E1.31593
G1 X80.801 Y101.832 E1.32448
G1 X81.232 Y101.895 E1.33865 F378.000
G1 X81.485 Y101.967 E1.34720
G1 X81.730 Y102.063 E1.35576
G1 X82.108 Y102.276 E1.36987
G1 X82.389 Y102.489 E1.38134
G1 X82.691 Y102.802 E1.39551
G1 X82.897 Y103.089 E1.40698
G1 X83.096 Y103.476 E1.42115
G1 X83.208 Y103.810 E1.43262
G1 X83.288 Y104.238 E1.44679
G1 X83.300 Y104.500 E1.45531
G1 X83.288 Y104.762 E1.46384
G1 X83.208 Y105.190 E1.47801
G1 X83.096 Y105.524 E1.48948
G1 X82.897 Y105.911 E1.50365
G1 X82.691 Y106.198 E1.51512
G1 X82.389 Y106.511 E1.52929
G1 X82.026 Y106.776 E1.54391
G1 F1800.000 E0.54391
G92 E0
G1 X80.796 Y101.396 F7800.000
G1 X89.950 Y108.150 F7800.000
G1 E1.00000 F1800.000
G1 X89.950 Y98.850 E1.30258 F378.000
G1 X87.050 Y98.850 E1.39692
G1 X87.154 Y97.831 E1.43025
G1 X87.241 Y97.193 E1.45119
G1 X87.482 Y95.929 E1.49305
G1 X87.636 Y95.304 E1.51399
G1 X88.001 Y94.096 E1.55505
G1 X88.467 Y92.870 E1.59771
G1 X88.738 Y92.260 E1.61944
G1 X89.309 Y91.134 E1.66051
G1 X89.642 Y90.556 E1.68224
G1 X90.329 Y89.496 E1.72331
G1 X91.102 Y88.468 E1.76517
G1 X91.928 Y87.514 E1.80624
G1 X92.392 Y87.033 E1.82797
G1 X93.332 Y86.155 E1.86984
G1 X94.332 Y85.345 E1.91170
G1 X95.366 Y84.621 E1.95276
G1 X95.932 Y84.266 E1.97450
G1 X97.058 Y83.643 E2.01636
G1 X98.225 Y83.100 E2.05822
G1 X99.128 Y82.756 E2.08968
G1 X99.760 Y82.617 E2.11075
G1 X100.406 Y82.573 E2.13180
G1 X100.729 Y82.588 E2.14234
G1 X101.072 Y82.630 E2.15358
G1 X101.681 Y82.774 E2.17393
G1 X101.986 Y82.882 E2.18447
G1 X102.568 Y83.166 E2.20553
G1 X102.841 Y83.340 E2.21606
G1 X103.117 Y83.547 E2.22730
G1 X103.574 Y83.975 E2.24766
G1 X103.784 Y84.221 E2.25819
G1 X104.148 Y84.757 E2.27925
G1 X104.307 Y85.064 E2.29049
G1 X104.534 Y85.647 E2.31085
G1 X104.677 Y86.278 E2.33191
G1 X104.725 Y86.917 E2.35275
G1 X104.725 Y113.083 E3.20408
G1 X104.677 Y113.722 E3.22493
G1 X104.617 Y114.040 E3.23546
G1 X104.427 Y114.659 E3.25652
G1 X104.148 Y115.243 E3.27758
G1 X103.976 Y115.518 E3.28812
G1 X103.784 Y115.779 E3.29866
G1 X103.346 Y116.255 E3.31971
G1 X103.101 Y116.467 E3.33025
G1 X102.568 Y116.834 E3.35131
G1 X101.986 Y117.118 E3.37237
G1 X101.681 Y117.226 E3.38291
G1 X101.051 Y117.374 E3.40396
G1 X100.729 Y117.412 E3.41450
G1 X100.082 Y117.417 E3.43556
G1 X99.760 Y117.383 E3.44609
G1 X99.441 Y117.326 E3.45663
G1 X98.825 Y117.141 E3.47758
G1 X97.616 Y116.629 E3.52029
G1 X96.450 Y116.033 E3.56290
G1 X95.883 Y115.704 E3.58421
G1 X94.767 Y114.973 E3.62762
G1 X93.745 Y114.194 E3.66942
G1 X93.246 Y113.770 E3.69072
G1 X92.763 Y113.329 E3.71203
G1 X91.844 Y112.395 E3.75463
G1 X90.995 Y111.399 E3.79724
G1 X90.218 Y110.344 E3.83984
G1 X89.519 Y109.237 E3.88245
G1 X88.912 Y108.150 E3.92296
G1 X89.875 Y108.150 E3.95430
G1 X89.700 Y107.717 F7800.000
G1 F1800.000 E2.95430
G92 E0
G1 X106.025 Y108.150 F7800.000
G1 E1.00000 F1800.000
G1 X106.025 Y86.917 E1.69083 F378.000
G1 X106.073 Y86.278 E1.71167
G1 X106.133 Y85.960 E1.72221
G1 X106.223 Y85.626 E1.73345
G1 X106.452 Y85.044 E1.75380
G1 X106.602 Y84.757 E1.76434
G1 X106.774 Y84.482 E1.77488
G1 X107.176 Y83.975 E1.79594
G1 X107.649 Y83.533 E1.81700
G1 X108.182 Y83.166 E1.83805
G1 X108.468 Y83.013 E1.84859
G1 X109.069 Y82.774 E1.86965
G1 X109.699 Y82.626 E1.89070
G1 X110.021 Y82.588 E1.90124
G1 X110.366 Y82.574 E1.91249
G1 X110.990 Y82.617 E1.93284 F378.000
G1 X111.309 Y82.674 E1.94337
G1 X111.925 Y82.859 E1.96432
G1 X112.532 Y83.103 E1.98560
G1 X113.149 Y83.378 E2.00758
G1 X114.286 Y83.959 E2.04910
G1 X114.870 Y84.298 E2.07107
G1 X115.938 Y84.995 E2.11260
G1 X116.975 Y85.782 E2.15493
G1 X117.935 Y86.623 E2.19645
G1 X118.419 Y87.094 E2.21843
G1 X118.869 Y87.564 E2.23959
G1 X119.716 Y88.552 E2.28192
G1 X120.113 Y89.067 E2.30309
G1 X120.850 Y90.139 E2.34542
G1 X121.190 Y90.694 E2.36659
G1 X121.810 Y91.838 E2.40892
G1 X122.347 Y93.023 E2.45125
G1 X122.799 Y94.243 E2.49358
G1 X122.992 Y94.864 E2.51475
G1 X123.163 Y95.492 E2.53592
G1 X123.437 Y96.764 E2.57825
G1 X123.621 Y98.052 E2.62058
G1 X123.712 Y99.325 E2.66210
G1 X123.725 Y100.000 E2.68408
G1 X123.679 Y101.300 E2.72641
G1 X123.621 Y101.948 E2.74758
G1 X123.437 Y103.236 E2.78991
G1 X123.163 Y104.508 E2.83224
G1 X122.984 Y105.159 E2.85421
G1 X122.584 Y106.371 E2.89573
G1 X122.089 Y107.575 E2.93807
G1 X121.510 Y108.740 E2.98040
G1 X120.850 Y109.861 E3.02273
G1 X120.113 Y110.933 E3.06506
G1 X119.301 Y111.950 E3.10739
G1 X118.419 Y112.906 E3.14972
G1 X117.472 Y113.798 E3.19205
G1 X116.483 Y114.605 E3.23357
G1 X115.938 Y115.005 E3.25554
G1 X114.849 Y115.715 E3.29787
G1 X113.711 Y116.347 E3.34021
G1 X112.532 Y116.897 E3.38253
G1 X111.622 Y117.244 E3.41423
G1 X111.309 Y117.326 E3.42477
G1 X110.668 Y117.417 E3.44582
G1 X110.021 Y117.412 E3.46688
G1 X109.381 Y117.312 E3.48794
G1 X108.764 Y117.118 E3.50900
G1 X108.182 Y116.834 E3.53006
G1 X107.909 Y116.660 E3.54060
G1 X107.421 Y116.269 E3.56095
G1 X107.176 Y116.025 E3.57219
G1 X106.966 Y115.779 E3.58273
G1 X106.602 Y115.243 E3.60378
G1 X106.323 Y114.659 E3.62484
G1 X106.216 Y114.353 E3.63538
G1 X106.073 Y113.722 E3.65644
G1 X106.037 Y113.400 E3.66697
G1 X106.025 Y108.225 E3.83536
G1 F1800.000 E2.83536
G92 E0
G1 X110.412 Y82.076 F7800.000
G1 X97.231 Y117.904 F7800.000
G1 E1.00000 F1800.000
G1 X97.137 Y118.311 E1.01360 F540.000
G1 X93.240 Y118.311 E1.14038
G1 X93.514 Y117.738 E1.16102
G1 X93.716 Y117.146 E1.18137
G1 X93.799 Y116.768 E1.19398
G1 X93.900 Y115.973 E1.22004
G1 X94.609 Y116.456 E1.24794
G1 X95.203 Y116.829 E1.27077
G1 X95.810 Y117.182 E1.29360
G1 X96.429 Y117.512 E1.31644
G1 X97.164 Y117.871 E1.34303
G1 X103.290 Y117.932 F7800.000
G1 X103.587 Y117.743 E1.35447 F540.000
G1 X103.925 Y117.492 E1.36819
G1 X104.244 Y117.215 E1.38191
G1 X104.541 Y116.916 E1.39563
G1 X104.815 Y116.596 E1.40935
G1 X105.064 Y116.255 E1.42307
G1 X105.375 Y115.758 E1.44214
G1 X105.685 Y116.255 E1.46120
G1 X105.935 Y116.595 E1.47492
G1 X106.209 Y116.916 E1.48865
G1 X106.506 Y117.215 E1.50236
G1 X106.825 Y117.492 E1.51609
G1 X107.163 Y117.743 E1.52980
G1 X107.460 Y117.932 E1.54124
G1 X107.350 Y118.311 E1.55409
G1 X103.400 Y118.311 E1.68258
G1 X103.311 Y118.004 E1.69298
G1 X113.518 Y117.903 F7800.000
G1 X114.308 Y117.518 E1.72157 F540.000
G1 X115.527 Y116.841 E1.76694
G1 X116.118 Y116.471 E1.78962
G1 X116.850 Y115.974 E1.81840
G1 X116.951 Y116.768 E1.84442
G1 X117.034 Y117.146 E1.85703
G1 X117.236 Y117.738 E1.87738
G1 X117.510 Y118.311 E1.89802
G1 X113.613 Y118.311 E2.02482
G1 X113.535 Y117.977 E2.03598
G1 X117.374 Y114.740 F7800.000
G1 X117.689 Y114.941 E2.04812 F540.000
G1 X117.582 Y115.466 E2.06556
G1 X117.542 Y116.000 E2.08297
G1 X117.556 Y116.327 E2.09363
G1 X117.599 Y116.655 E2.10438
G1 X117.669 Y116.977 E2.11512
G1 X117.768 Y117.293 E2.12586
G1 X117.984 Y117.785 E2.14335
G1 X118.150 Y118.070 E2.15409
G1 X118.340 Y118.340 E2.16483
G1 X118.870 Y118.968 E2.19156
G1 X91.880 Y118.968 E3.06968
G1 X92.410 Y118.340 E3.09641
G1 X92.600 Y118.070 E3.10715
G1 X92.766 Y117.785 E3.11790
G1 X92.907 Y117.486 E3.12863
G1 X93.081 Y116.977 E3.14612
G1 X93.168 Y116.534 E3.16084
G1 X93.208 Y116.000 E3.17825
G1 X93.168 Y115.466 E3.19566
G1 X93.061 Y114.940 E3.21312
G1 X93.376 Y114.740 E3.22527
G1 X94.408 Y115.524 E3.26744
G1 X95.543 Y116.267 E3.31157
G1 X96.728 Y116.927 E3.35570
G1 X97.957 Y117.500 E3.39983
G1 X98.596 Y117.757 E3.42222
G1 X98.940 Y117.874 E3.43403
G1 X99.300 Y117.968 E3.44616
G1 X99.667 Y118.034 E3.45829
G1 X100.038 Y118.073 E3.47042
G1 X100.411 Y118.084 E3.48255
G1 X100.783 Y118.068 E3.49468
G1 X101.153 Y118.024 E3.50680
G1 X101.519 Y117.952 E3.51893
G1 X101.878 Y117.853 E3.53106
G1 X102.230 Y117.728 E3.54320
G1 X102.571 Y117.577 E3.55532
G1 X102.899 Y117.402 E3.56745
G1 X103.214 Y117.202 E3.57958
G1 X103.513 Y116.979 E3.59171
G1 X103.795 Y116.735 E3.60384
G1 X104.025 Y116.503 E3.61447
G1 X104.300 Y116.187 E3.62809
G1 X104.520 Y115.887 E3.64022
G1 X104.718 Y115.570 E3.65235
G1 X104.891 Y115.240 E3.66448
G1 X105.040 Y114.898 E3.67661
G1 X105.188 Y114.472 E3.69130
G1 X105.562 Y114.472 E3.70346
G1 X105.710 Y114.898 E3.71816
G1 X105.859 Y115.240 E3.73028
G1 X106.032 Y115.570 E3.74241
G1 X106.230 Y115.886 E3.75454
G1 X106.450 Y116.187 E3.76667
G1 X106.693 Y116.470 E3.77880
G1 X106.955 Y116.735 E3.79092
G1 X107.237 Y116.979 E3.80306
G1 X107.536 Y117.202 E3.81518
G1 X107.851 Y117.402 E3.82732
G1 X108.179 Y117.577 E3.83944
G1 X108.564 Y117.744 E3.85307
G1 X108.872 Y117.853 E3.86370
G1 X109.231 Y117.952 E3.87583
G1 X109.597 Y118.024 E3.88796
G1 X109.967 Y118.068 E3.90009
G1 X110.339 Y118.084 E3.91221
G1 X110.712 Y118.073 E3.92435
G1 X111.083 Y118.034 E3.93648
G1 X111.450 Y117.968 E3.94861
G1 X111.810 Y117.874 E3.96073
G1 X112.154 Y117.757 E3.97254
G1 X112.788 Y117.502 E3.99479
G1 X113.404 Y117.228 E4.01672
G1 X114.605 Y116.616 E4.06056
G1 X115.188 Y116.278 E4.08249
G1 X116.317 Y115.542 E4.12633
G1 X117.315 Y114.787 E4.16706
G1 X121.357 Y111.476 F7800.000
G1 X121.959 Y110.567 E4.20252 F540.000
G1 X122.323 Y109.973 E4.22520
G1 X122.666 Y109.366 E4.24789
G1 X123.276 Y108.139 E4.29247
G1 X123.686 Y108.231 E4.30615
G1 X123.686 Y112.135 E4.43316
G1 X123.113 Y111.861 E4.45380
G1 X122.521 Y111.659 E4.47415
G1 X122.143 Y111.576 E4.48676
G1 X121.431 Y111.485 E4.51010
G1 X119.782 Y112.439 F7800.000
G1 X120.640 Y111.324 E4.55586 F540.000
G1 X121.404 Y110.214 E4.59971
G1 X121.774 Y109.608 E4.62282
G1 X122.398 Y108.455 E4.66548
G1 X122.940 Y107.261 E4.70815
G1 X123.200 Y106.599 E4.73126
G1 X123.623 Y105.320 E4.77510
G1 X123.878 Y104.337 E4.80813
G1 X124.343 Y104.391 E4.82337
G1 X124.343 Y113.495 E5.11956
G1 X123.715 Y112.965 E5.14629
G1 X123.445 Y112.775 E5.15703
G1 X123.160 Y112.609 E5.16777
G1 X122.861 Y112.468 E5.17851
G1 X122.352 Y112.294 E5.19600
G1 X122.030 Y112.224 E5.20674
G1 X121.702 Y112.181 E5.21749
G1 X121.375 Y112.167 E5.22815
G1 X121.048 Y112.181 E5.23881
G1 X120.720 Y112.224 E5.24955
G1 X119.856 Y112.422 E5.27842
G1 F1800.000 E4.27842
G92 E0
G1 X123.276 Y91.861 F7800.000
G1 E1.00000 F1800.000
G1 X122.666 Y90.634 E1.04459 F540.000
G1 X122.323 Y90.027 E1.06727
G1 X121.959 Y89.433 E1.08995
G1 X121.357 Y88.524 E1.12541
G1 X122.143 Y88.424 E1.15119
G1 X122.521 Y88.341 E1.16380
G1 X123.113 Y88.139 E1.18415
G1 X123.686 Y87.865 E1.20479
G1 X123.686 Y91.769 E1.33180
G1 X123.349 Y91.845 E1.34304
G1 X123.878 Y95.663 F7800.000
G1 X123.623 Y94.680 E1.37606 F540.000
G1 X123.200 Y93.401 E1.41991
G1 X122.687 Y92.154 E1.46375
G1 X122.398 Y91.545 E1.48568
G1 X121.756 Y90.360 E1.52953
G1 X121.404 Y89.786 E1.55145
G1 X120.640 Y88.676 E1.59530
G1 X119.782 Y87.561 E1.64107
G1 X120.720 Y87.776 E1.67237
G1 X121.048 Y87.819 E1.68312
G1 X121.375 Y87.833 E1.69378
G1 X121.702 Y87.819 E1.70444
G1 X122.233 Y87.734 E1.72193
G1 X122.667 Y87.607 E1.73665
G1 X122.973 Y87.482 E1.74739
G1 X123.267 Y87.332 E1.75812
G1 X123.715 Y87.035 E1.77561
G1 X124.343 Y86.505 E1.80235
G1 X124.343 Y95.609 E2.09854
G1 X123.952 Y95.654 E2.11134
G1 F1800.000 E1.11134
G92 E0
G1 X107.460 Y82.068 F7800.000
G1 E1.00000 F1800.000
G1 X107.163 Y82.257 E1.01144 F540.000
G1 X106.825 Y82.508 E1.02514
G1 X106.506 Y82.785 E1.03887
G1 X106.209 Y83.084 E1.05259
G1 X105.935 Y83.404 E1.06632
G1 X105.686 Y83.745 E1.08004
G1 X105.375 Y84.242 E1.09911
G1 X105.065 Y83.745 E1.11817
G1 X104.815 Y83.404 E1.13190
G1 X104.541 Y83.084 E1.14562
G1 X104.244 Y82.785 E1.15934
G1 X103.925 Y82.508 E1.17307
G1 X103.587 Y82.256 E1.18678
G1 X103.290 Y82.068 E1.19821
G1 X103.400 Y81.689 E1.21105
G1 X107.350 Y81.689 E1.33955
G1 X107.439 Y81.996 E1.34995
G1 X113.518 Y82.097 F7800.000
G1 X113.613 Y81.689 E1.36355 F540.000
G1 X117.510 Y81.689 E1.49035
G1 X117.236 Y82.262 E1.51099
