; generated by Slic3r 1.1.7 on 2016-09-13 at 13:46:22

; perimeters extrusion width = 0.50mm
; infill extrusion width = 0.52mm
; solid infill extrusion width = 0.52mm
; top infill extrusion width = 0.52mm

G21 ; set units to millimeters
M107
M104 S200 ; set temperature
G28 ; home all axes
G1 Z5 F5000 ; lift nozzle

M109 S200 ; wait for temperature to be reached
G90 ; use absolute coordinates
G92 E0
M82 ; use absolute distances for extrusion
G1 F1800.000 E-1.00000
G92 E0
G1 Z0.350 F7800.000
G1 X62.672 Y87.956 F7800.000
G1 E1.00000 F1800.000
G1 X64.681 Y86.839 E1.07480 F1080.000
G1 X66.529 Y86.480 E1.13604
G1 X110.593 Y84.269 E2.57148
G1 X111.532 Y84.227 E2.60207
G1 X112.478 Y84.215 E2.63283
G1 X113.409 Y84.234 E2.66312 F1080.000
G1 X114.345 Y84.283 E2.69364
G1 X115.276 Y84.362 E2.72402
G1 X133.320 Y86.519 E3.31527
G1 X135.521 Y87.182 E3.39007
G1 X137.366 Y88.555 E3.46487
G1 X138.633 Y90.473 E3.53967
G1 X139.186 Y93.129 E3.62792
G1 X139.186 Y99.129 E3.82313
G1 X138.789 Y101.393 E3.89793
G1 X137.645 Y103.388 E3.97274
G1 X135.891 Y104.874 E4.04754
G1 X133.950 Y105.632 E4.11535
G1 X89.049 Y115.440 E5.61066
G1 X87.684 Y115.669 E5.65566
G1 X86.628 Y115.761 E5.69016
G1 X85.797 Y115.786 E5.71723
G1 X73.474 Y115.784 E6.11813
G1 X72.719 Y115.758 E6.14272
G1 X71.966 Y115.695 E6.16732
G1 X71.216 Y115.597 E6.19191
G1 X70.473 Y115.462 E6.21650
G1 X69.736 Y115.291 E6.24109
G1 X69.009 Y115.085 E6.26568
G1 X67.894 Y114.694 E6.30412
G1 X66.898 Y114.261 E6.33946
G1 X66.224 Y113.919 E6.36404
G1 X65.567 Y113.546 E6.38864
G1 X64.929 Y113.141 E6.41323
G1 X64.311 Y112.706 E6.43780
G1 X63.389 Y111.966 E6.47626
G1 X62.593 Y111.228 E6.51159
G1 X62.070 Y110.682 E6.53618
G1 X61.575 Y110.111 E6.56077
G1 X61.107 Y109.518 E6.58536
G1 X60.668 Y108.902 E6.60996
G1 X60.042 Y107.897 E6.64848
G1 X59.538 Y106.939 E6.68370
G1 X59.225 Y106.250 E6.70831
G1 X58.947 Y105.547 E6.73291
G1 X58.702 Y104.832 E6.75750
G1 X58.493 Y104.106 E6.78210
G1 X58.318 Y103.370 E6.80669
G1 X58.180 Y102.627 E6.83128
G1 X58.077 Y101.878 E6.85587
G1 X58.011 Y101.125 E6.88047
G1 X57.981 Y100.370 E6.90506
G1 X57.988 Y99.614 E6.92965
G1 X58.031 Y98.860 E6.95424
G1 X58.110 Y98.108 E6.97883
G1 X58.220 Y97.390 E7.00248
G1 X58.385 Y96.550 E7.03031
G1 X58.582 Y95.718 E7.05815
G1 X58.812 Y94.894 E7.08598
G1 X59.074 Y94.079 E7.11382
G1 X59.369 Y93.276 E7.14165
G1 X59.695 Y92.485 E7.16949
G1 X60.311 Y91.188 E7.21621
G1 X60.720 Y90.435 E7.24410
G1 X61.162 Y89.690 E7.27227
G1 X62.623 Y88.013 E7.34463
G1 F1800.000 E6.34463
G92 E0
G1 X130.864 Y97.464 F7800.000
G1 E1.00000 F1800.000
G1 X125.951 Y97.464 E1.15985 F540.000
G1 X125.317 Y97.429 E1.18053
G1 X124.714 Y97.324 E1.20043
G1 X124.127 Y97.151 E1.22033
G1 X123.564 Y96.912 E1.24022
G1 X123.294 Y96.769 E1.25018
G1 X121.894 Y95.929 E1.30329
G1 X121.308 Y95.617 E1.32489
G1 X120.108 Y95.054 E1.36803
G1 X119.494 Y94.803 E1.38962
G1 X118.242 Y94.364 E1.43278
G1 X116.963 Y94.010 E1.47594
G1 X115.664 Y93.743 E1.51909
G1 X115.008 Y93.643 E1.54068
G1 X113.650 Y93.507 E1.58509
G1 X112.363 Y93.464 E1.62700
G1 X111.699 Y93.475 E1.64859
G1 X111.037 Y93.509 E1.67017
G1 X109.717 Y93.643 E1.71333
G1 X109.061 Y93.743 E1.73492
G1 X107.762 Y94.010 E1.77806
G1 X106.483 Y94.364 E1.82122
G1 X105.854 Y94.573 E1.84280
G1 X104.617 Y95.054 E1.88598
G1 X103.417 Y95.617 E1.92912
G1 X102.256 Y96.260 E1.97229
G1 X101.430 Y96.769 E2.00385
G1 X100.882 Y97.040 E2.02374
G1 X100.598 Y97.151 E2.03367
G1 X100.010 Y97.324 E2.05361
G1 X99.406 Y97.429 E2.07354
G1 X99.104 Y97.455 E2.08340
G1 X98.025 Y97.479 E2.11852
G1 X97.607 Y97.526 E2.13223
G1 X97.193 Y97.604 E2.14593
G1 X96.786 Y97.712 E2.15962
G1 X96.388 Y97.850 E2.17333
G1 X96.002 Y98.017 E2.18702
G1 X95.629 Y98.213 E2.20073
G1 X95.272 Y98.436 E2.21442
G1 X94.932 Y98.684 E2.22812
G1 X94.612 Y98.957 E2.24180
G1 X94.313 Y99.254 E2.25551
G1 X94.036 Y99.571 E2.26921
G1 X93.784 Y99.909 E2.28290
G1 X93.558 Y100.263 E2.29659
G1 X93.359 Y100.635 E2.31031
G1 X93.188 Y101.019 E2.32399
G1 X93.046 Y101.416 E2.33769
G1 X92.763 Y102.423 E2.37173
G1 X92.537 Y103.019 E2.39246
G1 X92.267 Y103.582 E2.41280
G1 X91.949 Y104.121 E2.43316
G1 X91.586 Y104.631 E2.45351
G1 X91.182 Y105.108 E2.47386
G1 X90.738 Y105.548 E2.49421
G1 X90.259 Y105.949 E2.51454
G1 X89.747 Y106.308 E2.53485
G1 X89.208 Y106.621 E2.55515
G1 X88.645 Y106.887 E2.57542
G1 X88.062 Y107.104 E2.59566
G1 X87.467 Y107.270 E2.61574
G1 X86.775 Y107.398 E2.63862
G1 X86.290 Y107.447 E2.65448
G1 X85.768 Y107.464 E2.67147
G1 X73.281 Y107.455 E3.07775
G1 X72.928 Y107.430 E3.08928
G1 X72.227 Y107.328 E3.11231
G1 X71.881 Y107.251 E3.12384
G1 X71.203 Y107.049 E3.14687
G1 X70.547 Y106.782 E3.16991
G1 X69.920 Y106.453 E3.19295
G1 X69.619 Y106.267 E3.20448
G1 X69.046 Y105.851 E3.22751
G1 X68.775 Y105.623 E3.23904
G1 X68.268 Y105.128 E3.26207
G1 X68.033 Y104.864 E3.27359
G1 X67.602 Y104.301 E3.29663
G1 X67.228 Y103.700 E3.31967
G1 X67.063 Y103.387 E3.33119
G1 X66.780 Y102.738 E3.35423
G1 X66.560 Y102.065 E3.37727
G1 X66.406 Y101.374 E3.40031
G1 X66.354 Y101.023 E3.41183
G1 X66.320 Y100.671 E3.42335
G1 X66.302 Y99.963 E3.44639
G1 X66.352 Y99.257 E3.46943
G1 X66.403 Y98.903 E3.48107
G1 X66.619 Y97.875 E3.51523
G1 X66.757 Y97.367 E3.53237
G1 X66.916 Y96.864 E3.54950
G1 X67.292 Y95.880 E3.58378
G1 X67.812 Y94.793 E3.62301
G1 X72.485 Y94.793 E3.77504
G1 X74.130 Y95.127 E3.82963
G1 X75.055 Y95.283 E3.86016
G1 X76.270 Y95.458 E3.90012
G1 X76.064 Y95.995 E3.91883
G1 X75.965 Y96.367 E3.93133
G1 X75.905 Y96.745 E3.94381
G1 X75.887 Y97.085 E3.95487
G1 X75.887 Y102.201 E4.12133
G1 X75.936 Y102.766 E4.13976
G1 X76.102 Y103.384 E4.16059
G1 X76.360 Y103.937 E4.18046
G1 X76.585 Y104.284 E4.19390
G1 X76.826 Y104.582 E4.20637
G1 X77.098 Y104.853 E4.21887
G1 X77.396 Y105.095 E4.23136
G1 X77.718 Y105.304 E4.24382
G1 X78.060 Y105.478 E4.25632
G1 X78.418 Y105.616 E4.26882
G1 X78.879 Y105.729 E4.28426
G1 X79.168 Y105.775 E4.29377
G1 X79.551 Y105.795 E4.30626
G1 X79.935 Y105.775 E4.31876
G1 X80.313 Y105.715 E4.33123
G1 X80.684 Y105.616 E4.34371
G1 X81.042 Y105.478 E4.35619
G1 X81.303 Y105.345 E4.36571
G1 X81.707 Y105.095 E4.38117
G1 X82.004 Y104.854 E4.39363
G1 X82.276 Y104.582 E4.40613
G1 X82.518 Y104.283 E4.41863
G1 X82.742 Y103.938 E4.43204
G1 X83.000 Y103.384 E4.45193
G1 X83.166 Y102.766 E4.47274
G1 X83.215 Y102.201 E4.49118
G1 X83.215 Y97.085 E4.65764
G1 X83.198 Y96.745 E4.66870
G1 X83.137 Y96.366 E4.68119
G1 X82.977 Y95.766 E4.70141
G1 X84.323 Y95.700 E4.74527
G1 X85.258 Y95.627 E4.77579
G1 X87.122 Y95.419 E4.83682
G1 X88.971 Y95.127 E4.89771
G1 X90.617 Y94.793 E4.95236
G1 X102.966 Y94.793 E5.35415
G1 X103.931 Y94.341 E5.38881
G1 X105.168 Y93.834 E5.43228
G1 X106.434 Y93.408 E5.47575
G1 X107.725 Y93.065 E5.51923
G1 X109.036 Y92.806 E5.56271
G1 X110.361 Y92.633 E5.60617
G1 X111.694 Y92.547 E5.64964
G1 X113.031 Y92.547 E5.69311
G1 X114.364 Y92.633 E5.73659
G1 X115.028 Y92.709 E5.75833
G1 X116.346 Y92.925 E5.80180
G1 X117.648 Y93.226 E5.84527
G1 X118.928 Y93.610 E5.88875
G1 X119.558 Y93.834 E5.91048
G1 X120.794 Y94.341 E5.95395
G1 X121.759 Y94.793 E5.98862
G1 X130.864 Y94.793 E6.28488
G1 X130.864 Y97.389 E6.36936
G1 X131.521 Y98.122 F7800.000
G1 X125.942 Y98.122 E6.55090 F540.000
G1 X125.241 Y98.082 E6.57372
G1 X124.565 Y97.964 E6.59607
G1 X123.906 Y97.770 E6.61842
G1 X123.273 Y97.501 E6.64077
G1 X122.970 Y97.340 E6.65195
G1 X121.576 Y96.504 E6.70485
G1 X121.010 Y96.202 E6.72572
G1 X119.849 Y95.658 E6.76742
G1 X119.255 Y95.415 E6.78829
G1 X118.045 Y94.991 E6.83001
G1 X117.430 Y94.809 E6.85087
G1 X116.810 Y94.649 E6.87173
G1 X115.554 Y94.391 E6.91344
G1 X114.892 Y94.291 E6.93520
G1 X113.644 Y94.165 E6.97602
G1 X113.004 Y94.132 E6.99689
G1 X111.721 Y94.132 E7.03861
G1 X111.081 Y94.165 E7.05947
G1 X109.805 Y94.294 E7.10118
G1 X108.542 Y94.509 E7.14290
G1 X107.889 Y94.656 E7.16465
G1 X106.680 Y94.991 E7.20548
G1 X105.470 Y95.415 E7.24719
G1 X104.876 Y95.658 E7.26806
G1 X103.716 Y96.202 E7.30977
G1 X103.149 Y96.504 E7.33063
G1 X101.755 Y97.341 E7.38356
G1 X101.453 Y97.501 E7.39467
G1 X100.820 Y97.770 E7.41706
G1 X100.160 Y97.964 E7.43945
G1 X99.482 Y98.082 E7.46184
G1 X99.142 Y98.111 E7.47292
G1 X98.074 Y98.135 E7.50768
G1 X97.704 Y98.176 E7.51980
G1 X97.338 Y98.245 E7.53191
G1 X96.979 Y98.341 E7.54401
G1 X96.627 Y98.463 E7.55612
G1 X96.286 Y98.611 E7.56822
G1 X95.956 Y98.784 E7.58034
G1 X95.605 Y99.006 E7.59387
G1 X95.340 Y99.200 E7.60455
G1 X95.057 Y99.442 E7.61665
G1 X94.764 Y99.737 E7.63019
G1 X94.548 Y99.984 E7.64087
G1 X94.325 Y100.282 E7.65297
G1 X94.125 Y100.596 E7.66508
G1 X93.970 Y100.885 E7.67576
G1 X93.798 Y101.264 E7.68929
G1 X93.672 Y101.614 E7.70140
G1 X93.387 Y102.629 E7.73568
G1 X93.142 Y103.278 E7.75825
G1 X92.847 Y103.892 E7.78042
G1 X92.501 Y104.479 E7.80261
G1 X92.105 Y105.035 E7.82479
G1 X91.665 Y105.554 E7.84696
G1 X91.181 Y106.034 E7.86913
G1 X90.659 Y106.471 E7.89128
G1 X90.102 Y106.862 E7.91342
G1 X89.514 Y107.204 E7.93554
G1 X88.900 Y107.493 E7.95763
G1 X88.265 Y107.730 E7.97968
G1 X87.615 Y107.911 E8.00163
G1 X86.868 Y108.049 E8.02633
G1 X86.335 Y108.103 E8.04378
G1 X85.780 Y108.122 E8.06185
G1 X73.249 Y108.112 E8.46952
G1 X72.481 Y108.038 E8.49463
G1 X71.724 Y107.889 E8.51973
G1 X70.985 Y107.669 E8.54483
G1 X70.624 Y107.532 E8.55738
G1 X70.270 Y107.378 E8.56994
G1 X69.587 Y107.020 E8.59504
G1 X68.941 Y106.598 E8.62015
G1 X68.339 Y106.115 E8.64525
G1 X68.057 Y105.852 E8.65780
G1 X67.531 Y105.288 E8.68290
G1 X67.062 Y104.675 E8.70800
G1 X66.850 Y104.353 E8.72056
G1 X66.654 Y104.020 E8.73311
G1 X66.311 Y103.329 E8.75822
G1 X66.165 Y102.972 E8.77077
G1 X65.926 Y102.238 E8.79587
G1 X65.758 Y101.485 E8.82098
G1 X65.702 Y101.103 E8.83353
G1 X65.664 Y100.719 E8.84608
G1 X65.645 Y99.948 E8.87119
G1 X65.699 Y99.178 E8.89629
G1 X65.755 Y98.794 E8.90892
G1 X65.981 Y97.715 E8.94481
G1 X66.127 Y97.181 E8.96280
G1 X66.293 Y96.654 E8.98078
G1 X66.688 Y95.622 E9.01675
G1 X67.162 Y94.623 E9.05271
G1 X67.431 Y94.136 E9.07082
G1 X72.555 Y94.136 E9.23755
G1 X74.213 Y94.474 E9.29259
G1 X75.155 Y94.634 E9.32368
G1 X76.068 Y94.767 E9.35370
G1 X77.466 Y94.929 E9.39949
G1 X77.117 Y95.361 E9.41754
G1 X76.946 Y95.624 E9.42777
G1 X76.803 Y95.905 E9.43802
G1 X76.690 Y96.199 E9.44827
G1 X76.608 Y96.503 E9.45852
G1 X76.559 Y96.814 E9.46876
G1 X76.544 Y97.102 E9.47814
G1 X76.544 Y102.173 E9.64311
G1 X76.586 Y102.651 E9.65874
G1 X76.722 Y103.158 E9.67583
G1 X76.936 Y103.618 E9.69233
G1 X77.117 Y103.897 E9.70315
G1 X77.315 Y104.142 E9.71339
G1 X77.538 Y104.364 E9.72364
G1 X77.783 Y104.563 E9.73389
G1 X78.047 Y104.734 E9.74412
G1 X78.328 Y104.877 E9.75437
G1 X78.622 Y104.990 E9.76463
G1 X78.925 Y105.071 E9.77486
G1 X79.237 Y105.121 E9.78511
G1 X79.551 Y105.137 E9.79536
G1 X79.866 Y105.121 E9.80561
G1 X80.177 Y105.071 E9.81585
G1 X80.481 Y104.990 E9.82609
G1 X80.775 Y104.877 E9.83633
G1 X81.056 Y104.734 E9.84659
G1 X81.320 Y104.562 E9.85684
G1 X81.564 Y104.365 E9.86707
G1 X81.787 Y104.142 E9.87732
G1 X81.985 Y103.897 E9.88757
G1 X82.166 Y103.618 E9.89838
G1 X82.381 Y103.158 E9.91489
G1 X82.516 Y102.651 E9.93196
G1 X82.558 Y102.173 E9.94760
G1 X82.558 Y97.102 E10.11257
G1 X82.543 Y96.814 E10.12195
G1 X82.494 Y96.503 E10.13220
G1 X82.412 Y96.199 E10.14244
G1 X82.300 Y95.905 E10.15269
G1 X82.157 Y95.624 E10.16293
G1 X81.837 Y95.133 E10.18201
G1 X83.363 Y95.095 E10.23167
G1 X84.284 Y95.044 E10.26168
G1 X86.154 Y94.876 E10.32277
G1 X87.982 Y94.628 E10.38280
G1 X88.879 Y94.476 E10.41239
G1 X90.547 Y94.136 E10.46777
G1 X102.820 Y94.136 E10.86709
G1 X103.662 Y93.741 E10.89734
G1 X104.938 Y93.218 E10.94220
G1 X105.588 Y92.987 E10.96464
G1 X106.908 Y92.591 E11.00949
G1 X108.252 Y92.280 E11.05435
G1 X108.930 Y92.158 E11.07679
G1 X110.297 Y91.979 E11.12164
G1 X111.673 Y91.890 E11.16650
G1 X113.052 Y91.890 E11.21136
G1 X114.428 Y91.979 E11.25623
G1 X115.795 Y92.158 E11.30108
G1 X117.148 Y92.424 E11.34594
G1 X118.480 Y92.778 E11.39080
G1 X119.787 Y93.218 E11.43566
G1 X121.063 Y93.741 E11.48052
G1 X121.905 Y94.136 E11.51077
G1 X131.521 Y94.136 E11.82365
G1 X131.521 Y98.047 E11.95089
G1 X132.179 Y98.779 F7800.000
G1 X125.932 Y98.779 E12.15411 F378.000
G1 X125.166 Y98.735 E12.17907
G1 X124.415 Y98.604 E12.20388
G1 X123.684 Y98.389 E12.22868
G1 X122.982 Y98.091 E12.25348
G1 X122.645 Y97.912 E12.26589
G1 X121.257 Y97.078 E12.31857
G1 X120.711 Y96.787 E12.33871
G1 X119.590 Y96.262 E12.37899
G1 X119.017 Y96.028 E12.39913
G1 X117.849 Y95.618 E12.43940
G1 X117.255 Y95.443 E12.45954
G1 X116.656 Y95.288 E12.47968
G1 X115.443 Y95.039 E12.51996
G1 X114.815 Y94.943 E12.54063
G1 X113.600 Y94.820 E12.58037
G1 X112.982 Y94.789 E12.60051
G1 X111.744 Y94.789 E12.64079
G1 X111.125 Y94.820 E12.66093
G1 X109.894 Y94.945 E12.70120
G1 X108.674 Y95.153 E12.74148
G1 X108.053 Y95.292 E12.76215
G1 X106.876 Y95.618 E12.80189
G1 X105.708 Y96.028 E12.84217
G1 X105.135 Y96.262 E12.86231
G1 X104.014 Y96.787 E12.90258
G1 X103.468 Y97.078 E12.92272
G1 X102.079 Y97.913 E12.97543
G1 X101.744 Y98.090 E12.98777
G1 X101.041 Y98.389 E13.01261
G1 X100.309 Y98.605 E13.03745
G1 X99.557 Y98.735 E13.06229
G1 X99.180 Y98.768 E13.07460
G1 X98.123 Y98.790 E13.10900
G1 X97.484 Y98.886 E13.13003
G1 X96.866 Y99.075 E13.15105
G1 X96.283 Y99.354 E13.17207
G1 X95.993 Y99.537 E13.18322
G1 X95.502 Y99.926 E13.20361
G1 X95.259 Y100.168 E13.21476
G1 X94.866 Y100.656 E13.23515
G1 X94.549 Y101.196 E13.25553
G1 X94.408 Y101.509 E13.26668
G1 X94.299 Y101.813 E13.27720
G1 X94.012 Y102.835 E13.31173
G1 X93.747 Y103.536 E13.33613
G1 X93.427 Y104.202 E13.36014
G1 X93.052 Y104.837 E13.38415
G1 X92.625 Y105.438 E13.40816
G1 X92.147 Y106.001 E13.43215
G1 X91.624 Y106.520 E13.45615
G1 X91.059 Y106.993 E13.48012
G1 X90.456 Y107.416 E13.50408
G1 X89.820 Y107.786 E13.52802
G1 X89.155 Y108.100 E13.55193
G1 X88.468 Y108.355 E13.57580
G1 X87.763 Y108.552 E13.59960
G1 X86.961 Y108.700 E13.62612
G1 X86.379 Y108.759 E13.64516
G1 X85.791 Y108.779 E13.66432
G1 X73.218 Y108.768 E14.07339
G1 X72.386 Y108.688 E14.10055
G1 X71.567 Y108.528 E14.12772
G1 X70.767 Y108.289 E14.15488
G1 X70.376 Y108.141 E14.16847
G1 X69.993 Y107.975 E14.18206
G1 X69.254 Y107.587 E14.20923
G1 X68.899 Y107.367 E14.22282
G1 X68.223 Y106.876 E14.24998
G1 X67.598 Y106.323 E14.27715
G1 X67.029 Y105.712 E14.30431
G1 X66.521 Y105.049 E14.33148
G1 X66.292 Y104.700 E14.34507
G1 X66.080 Y104.340 E14.35865
G1 X65.709 Y103.592 E14.38582
G1 X65.551 Y103.206 E14.39941
G1 X65.292 Y102.412 E14.42657
G1 X65.111 Y101.597 E14.45374
G1 X65.050 Y101.184 E14.46733
G1 X65.009 Y100.768 E14.48091
G1 X64.987 Y99.933 E14.50808
G1 X65.047 Y99.100 E14.53525
G1 X65.214 Y98.118 E14.56766
G1 X65.344 Y97.554 E14.58649
G1 X65.670 Y96.444 E14.62414
G1 X66.084 Y95.363 E14.66180
G1 X66.322 Y94.836 E14.68063
G1 X66.581 Y94.318 E14.69945
G1 X67.060 Y93.479 E14.73090
G1 X72.626 Y93.479 E14.91198
G1 X74.362 Y93.833 E14.96963
G1 X76.128 Y94.112 E15.02780
G1 X77.930 Y94.316 E15.08680
G1 X78.972 Y94.398 E15.12081
G1 X79.032 Y94.814 E15.13448
G1 X78.595 Y94.981 E15.14971
G1 X78.376 Y95.093 E15.15772
G1 X78.170 Y95.227 E15.16572
G1 X77.978 Y95.382 E15.17373
G1 X77.804 Y95.556 E15.18173
G1 X77.650 Y95.747 E15.18974
G1 X77.516 Y95.953 E15.19774
G1 X77.404 Y96.173 E15.20574
G1 X77.316 Y96.402 E15.21375
G1 X77.252 Y96.640 E15.22176
G1 X77.214 Y96.883 E15.22976
G1 X77.201 Y97.119 E15.23746
G1 X77.201 Y102.144 E15.40094
G1 X77.236 Y102.537 E15.41377
G1 X77.342 Y102.933 E15.42711
G1 X77.512 Y103.299 E15.44024
G1 X77.650 Y103.510 E15.44845
G1 X77.804 Y103.701 E15.45645
G1 X77.978 Y103.875 E15.46446
G1 X78.170 Y104.030 E15.47246
G1 X78.376 Y104.164 E15.48046
G1 X78.595 Y104.276 E15.48847
G1 X78.825 Y104.364 E15.49648
G1 X79.062 Y104.428 E15.50448
G1 X79.305 Y104.466 E15.51248
G1 X79.551 Y104.479 E15.52049
G1 X79.797 Y104.466 E15.52850
G1 X80.040 Y104.428 E15.53650
G1 X80.277 Y104.364 E15.54450
G1 X80.507 Y104.276 E15.55251
G1 X80.726 Y104.164 E15.56051
G1 X80.933 Y104.030 E15.56852
G1 X81.124 Y103.875 E15.57652
G1 X81.298 Y103.701 E15.58453
G1 X81.453 Y103.510 E15.59253
G1 X81.590 Y103.299 E15.60073
G1 X81.761 Y102.933 E15.61387
G1 X81.867 Y102.537 E15.62721
G1 X81.901 Y102.144 E15.64004
G1 X81.901 Y97.119 E15.80351
G1 X81.889 Y96.883 E15.81122
G1 X81.850 Y96.640 E15.81922
